X:1
T:Keel Row + Rigs of Marlow combination
S:Flos Headford <flos:madasafish.com> tradtunes 2010-4-7
C:Trad arr. P J Headford
R:hp 16
Z:PJHeadford
M:4/4
L:1/8
Q:2/4=70
K:G
|: B2G>B c2A>c | B2G>B A>FD2 |\
B2G>B c2A>c | B>GA>F G2G2 :|] 
|: (3gfe d>c B>cd2 | (3gfe d>c B>dA2 |\
(3gfe d>c B>cd>c | B>GA>F G2G2 :|] 

